Dominus_Dark_Funeral/scalable/actions/address-book-new.svg

<svg xmlns="http://www.w3.org/2000/svg" version="1" viewBox="0 0 24 24"><path fill="#e6e6e6" d="M3.61 1.01c-.85 0-1.53.69-1.53 1.53v18.4c0 .85.68 1.54 1.53 1.54h9.2v-1.55l-7.67.01V2.54h13.04c.42 0 .76.34.76.77v9.96h1.54V2.55c0-.85-.69-1.54-1.54-1.54H3.61zm5.41 4.64a.25.25 0 0 0-.2.2c-.01.02-.12.55-.05 1.17.11.86.51 1.5 1.16 1.83-.05.57.05 1.16-.13 1.71-.16.57 0 1.18.41 1.6.36.44.8 1.02.55 1.62-.35.68-1.05 1.08-1.69 1.44a2.6 2.6 0 0 0-.57.32c-.16.05-.29.17-.29.35v1.6a.38.38 0 0 0 .39.39h4.19a1.56 1.56 0 0 1 1.55-1.55h1.51v-.82c-.84-.46-1.8-.9-2.27-1.8-.16-.7.34-1.32.77-1.81.44-.55.27-1.27.12-1.89-.04-.39 0-.82-.04-1.22.6-.35.97-.95 1.07-1.77.08-.62-.03-1.15-.03-1.17a.25.25 0 0 0-.22-.2.25.25 0 0 0-.25.14c0 .02-.69 1.4-1.77 1.62a3.92 3.92 0 0 0-1.2-.26 1.98 1.98 0 0 0-1.06.24c-1.03-.27-1.69-1.58-1.7-1.6a.25.25 0 0 0-.25-.14zm8.39 9.18v3.06h-3.07v3.04l3.07.02V24h3.07v-3.06h3.06v-3.06h-3.06v-3.06H17.4z" style="isolation:auto;mix-blend-mode:normal"/></svg>

<?xml version="1.0" encoding="UTF-8" standalone="no"?>
<svg
   xmlns:dc="http://purl.org/dc/elements/1.1/"
   xmlns:cc="http://creativecommons.org/ns#"
   xmlns:rdf="http://www.w3.org/1999/02/22-rdf-syntax-ns#"
   xmlns:svg="http://www.w3.org/2000/svg"
   xmlns="http://www.w3.org/2000/svg"
   xmlns:sodipodi="http://sodipodi.sourceforge.net/DTD/sodipodi-0.dtd"
   xmlns:inkscape="http://www.inkscape.org/namespaces/inkscape"
   version="1"
   viewBox="0 0 24 24"
   id="svg4"
   sodipodi:docname="address-book-new.svg"
   inkscape:version="0.92.4 (5da689c313, 2019-01-14)">
  <metadata
     id="metadata10">
    <rdf:RDF>
      <cc:Work
         rdf:about="">
        <dc:format>image/svg+xml</dc:format>
        <dc:type
           rdf:resource="http://purl.org/dc/dcmitype/StillImage" />
        <dc:title></dc:title>
      </cc:Work>
    </rdf:RDF>
  </metadata>
  <defs
     id="defs8" />
  <sodipodi:namedview
     pagecolor="#ffffff"
     bordercolor="#666666"
     borderopacity="1"
     objecttolerance="10"
     gridtolerance="10"
     guidetolerance="10"
     inkscape:pageopacity="0"
     inkscape:pageshadow="2"
     inkscape:window-width="1112"
     inkscape:window-height="480"
     id="namedview6"
     showgrid="false"
     inkscape:zoom="9.8333333"
     inkscape:cx="1.0677966"
     inkscape:cy="12"
     inkscape:window-x="0"
     inkscape:window-y="25"
     inkscape:window-maximized="0"
     inkscape:current-layer="svg4" />
  <path
     d="M 3.61,1.01 C 2.76,1.01 2.08,1.7 2.08,2.54 v 18.4 c 0,0.85 0.68,1.54 1.53,1.54 h 9.2 V 20.93 L 5.14,20.94 V 2.54 h 13.04 c 0.42,0 0.76,0.34 0.76,0.77 v 9.96 h 1.54 V 2.55 c 0,-0.85 -0.69,-1.54 -1.54,-1.54 z m 5.41,4.64 a 0.25,0.25 0 0 0 -0.2,0.2 C 8.81,5.87 8.7,6.4 8.77,7.02 c 0.11,0.86 0.51,1.5 1.16,1.83 -0.05,0.57 0.05,1.16 -0.13,1.71 -0.16,0.57 0,1.18 0.41,1.6 0.36,0.44 0.8,1.02 0.55,1.62 -0.35,0.68 -1.05,1.08 -1.69,1.44 A 2.6,2.6 0 0 0 8.5,15.54 c -0.16,0.05 -0.29,0.17 -0.29,0.35 v 1.6 a 0.38,0.38 0 0 0 0.39,0.39 h 4.19 a 1.56,1.56 0 0 1 1.55,-1.55 h 1.51 v -0.82 c -0.84,-0.46 -1.8,-0.9 -2.27,-1.8 -0.16,-0.7 0.34,-1.32 0.77,-1.81 0.44,-0.55 0.27,-1.27 0.12,-1.89 -0.04,-0.39 0,-0.82 -0.04,-1.22 C 15.03,8.44 15.4,7.84 15.5,7.02 15.58,6.4 15.47,5.87 15.47,5.85 A 0.25,0.25 0 0 0 15.25,5.65 0.25,0.25 0 0 0 15,5.79 c 0,0.02 -0.69,1.4 -1.77,1.62 A 3.92,3.92 0 0 0 12.03,7.15 1.98,1.98 0 0 0 10.97,7.39 C 9.94,7.12 9.28,5.81 9.27,5.79 A 0.25,0.25 0 0 0 9.02,5.65 Z m 8.39,9.18 v 3.06 h -3.07 v 3.04 l 3.07,0.02 V 24 h 3.07 v -3.06 h 3.06 V 17.88 H 20.48 V 14.82 H 17.4 Z"
     style="isolation:auto;mix-blend-mode:normal;fill:#e6e6e6"
     id="path2"
     inkscape:connector-curvature="0" />
</svg>
